;GENERATED BY DXF EasyCAM-2
;MOP POCKET
;==========
;zSafe = 3.0000
;zStart = 0.0000
;zFinal = -1.8000
;zInc = 0.0250
;feedRate = 750.0000
;plungeRate = 20.0000
;speed = 10000.0000
;sDirection = CCW
;toolNumber = 1
;pocketStepSize  = 1.0000
;pocketFinishAllowance  = 1.0000
;method = 1

;feedRate
#101 = 750.0000
;PlungeRate
#102 = 20.0000

G64 P0.1

N0001 M6 T1
N0002 M3 S10000.00 

;Path start Point
N0003 G0 X218.9789 Y39.2581
N0004 G0 Z3.0000
N0005 F[#102] G1 Z-1.8000
N0006 F[#101] G3 X218.8789 Y39.2581 I-0.0500 J0.0000
N0007 F[#101] G3 X218.9789 Y39.2581 I0.0500 J0.0000
N0008 G0 Z3.0000

;Path start Point
N0009 G0 X218.9789 Y49.2581
N0010 F[#102] G1 Z-1.8000
N0011 F[#101] G3 X218.8789 Y49.2581 I-0.0500 J0.0000
N0012 F[#101] G3 X218.9789 Y49.2581 I0.0500 J0.0000
N0013 G0 Z3.0000

;Path start Point
N0014 G0 X199.9500 Y44.0000
N0015 F[#102] G1 Z-1.8000
N0016 F[#101] G3 X199.8500 Y44.0000 I-0.0500 J0.0000
N0017 F[#101] G3 X199.9500 Y44.0000 I0.0500 J0.0000
N0018 G0 Z3.0000

;Path start Point
N0019 G0 X199.9500 Y34.0000
N0020 F[#102] G1 Z-1.8000
N0021 F[#101] G3 X199.8500 Y34.0000 I-0.0500 J0.0000
N0022 F[#101] G3 X199.9500 Y34.0000 I0.0500 J0.0000
N0023 G0 Z3.0000

;Path start Point
N0024 G0 X161.9789 Y39.2581
N0025 F[#102] G1 Z-1.8000
N0026 F[#101] G3 X161.8789 Y39.2581 I-0.0500 J0.0000
N0027 F[#101] G3 X161.9789 Y39.2581 I0.0500 J0.0000
N0028 G0 Z3.0000

;Path start Point
N0029 G0 X161.9789 Y49.2581
N0030 F[#102] G1 Z-1.8000
N0031 F[#101] G3 X161.8789 Y49.2581 I-0.0500 J0.0000
N0032 F[#101] G3 X161.9789 Y49.2581 I0.0500 J0.0000
N0033 G0 Z3.0000

;Path start Point
N0034 G0 X142.9500 Y44.0000
N0035 F[#102] G1 Z-1.8000
N0036 F[#101] G3 X142.8500 Y44.0000 I-0.0500 J0.0000
N0037 F[#101] G3 X142.9500 Y44.0000 I0.0500 J0.0000
N0038 G0 Z3.0000

;Path start Point
N0039 G0 X142.9500 Y34.0000
N0040 F[#102] G1 Z-1.8000
N0041 F[#101] G3 X142.8500 Y34.0000 I-0.0500 J0.0000
N0042 F[#101] G3 X142.9500 Y34.0000 I0.0500 J0.0000
N0043 G0 Z3.0000

;Path start Point
N0044 G0 X96.1789 Y39.2581
N0045 F[#102] G1 Z-1.8000
N0046 F[#101] G3 X96.0789 Y39.2581 I-0.0500 J0.0000
N0047 F[#101] G3 X96.1789 Y39.2581 I0.0500 J0.0000
N0048 G0 Z3.0000

;Path start Point
N0049 G0 X96.1789 Y49.2581
N0050 F[#102] G1 Z-1.8000
N0051 F[#101] G3 X96.0789 Y49.2581 I-0.0500 J0.0000
N0052 F[#101] G3 X96.1789 Y49.2581 I0.0500 J0.0000
N0053 G0 Z3.0000

;Path start Point
N0054 G0 X77.1500 Y44.0000
N0055 F[#102] G1 Z-1.8000
N0056 F[#101] G3 X77.0500 Y44.0000 I-0.0500 J0.0000
N0057 F[#101] G3 X77.1500 Y44.0000 I0.0500 J0.0000
N0058 G0 Z3.0000

;Path start Point
N0059 G0 X77.1500 Y34.0000
N0060 F[#102] G1 Z-1.8000
N0061 F[#101] G3 X77.0500 Y34.0000 I-0.0500 J0.0000
N0062 F[#101] G3 X77.1500 Y34.0000 I0.0500 J0.0000
N0063 G0 Z3.0000

;Path start Point
N0064 G0 X39.1789 Y39.2581
N0065 F[#102] G1 Z-1.8000
N0066 F[#101] G3 X39.0789 Y39.2581 I-0.0500 J0.0000
N0067 F[#101] G3 X39.1789 Y39.2581 I0.0500 J0.0000
N0068 G0 Z3.0000

;Path start Point
N0069 G0 X39.1789 Y49.2581
N0070 F[#102] G1 Z-1.8000
N0071 F[#101] G3 X39.0789 Y49.2581 I-0.0500 J0.0000
N0072 F[#101] G3 X39.1789 Y49.2581 I0.0500 J0.0000
N0073 G0 Z3.0000

;Path start Point
N0074 G0 X20.1500 Y34.0000
N0075 F[#102] G1 Z-1.8000
N0076 F[#101] G3 X20.0500 Y34.0000 I-0.0500 J0.0000
N0077 F[#101] G3 X20.1500 Y34.0000 I0.0500 J0.0000
N0078 G0 Z3.0000

;Path start Point
N0079 G0 X20.1500 Y44.0000
N0080 F[#102] G1 Z-1.8000
N0081 F[#101] G3 X20.0500 Y44.0000 I-0.0500 J0.0000
N0082 F[#101] G3 X20.1500 Y44.0000 I0.0500 J0.0000
N0083 G0 Z3.0000
N0084 M30
