;GENERATED BY DXF EasyCAM-2
;MOP POCKET
;==========
;zSafe = 3.0000
;zStart = 0.0000
;zFinal = -2.0000
;zInc = 0.5000
;feedRate = 1300.0000
;plungeRate = 100.0000
;speed = 10000.0000
;sDirection = CCW
;toolNumber = 1
;pocketStepSize  = 1.0000
;pocketFinishAllowance  = 1.0000
;method = 0

;feedRate
#101 = 1300.0000
;PlungeRate
#102 = 100.0000

G64 P0.1

N0001 M6 T1
N0002 M3 S10000.00 

;Path start Point
N0003 G0 X255.0298 Y20.4405
N0004 G0 Z3.0000
N0005 F[#102] G1 Z-2.0000
N0006 F[#101] G2 X254.9298 Y20.4405 I-0.0500 J0.0000
N0007 F[#101] G2 X255.0298 Y20.4405 I0.0500 J0.0000
N0008 G0 Z3.0000

;Path start Point
N0009 G0 X255.0298 Y77.4405
N0010 F[#102] G1 Z-2.0000
N0011 F[#101] G2 X254.9298 Y77.4405 I-0.0500 J0.0000
N0012 F[#101] G2 X255.0298 Y77.4405 I0.0500 J0.0000
N0013 G0 Z3.0000

;Path start Point
N0014 G0 X255.0298 Y143.2405
N0015 F[#102] G1 Z-2.0000
N0016 F[#101] G2 X254.9298 Y143.2405 I-0.0500 J0.0000
N0017 F[#101] G2 X255.0298 Y143.2405 I0.0500 J0.0000
N0018 G0 Z3.0000

;Path start Point
N0019 G0 X255.0298 Y200.2405
N0020 F[#102] G1 Z-2.0000
N0021 F[#101] G2 X254.9298 Y200.2405 I-0.0500 J0.0000
N0022 F[#101] G2 X255.0298 Y200.2405 I0.0500 J0.0000
N0023 G0 Z3.0000

;Path start Point
N0024 G0 X245.0298 Y20.4405
N0025 F[#102] G1 Z-2.0000
N0026 F[#101] G2 X244.9298 Y20.4405 I-0.0500 J0.0000
N0027 F[#101] G2 X245.0298 Y20.4405 I0.0500 J0.0000
N0028 G0 Z3.0000

;Path start Point
N0029 G0 X245.0298 Y77.4405
N0030 F[#102] G1 Z-2.0000
N0031 F[#101] G2 X244.9298 Y77.4405 I-0.0500 J0.0000
N0032 F[#101] G2 X245.0298 Y77.4405 I0.0500 J0.0000
N0033 G0 Z3.0000

;Path start Point
N0034 G0 X245.0298 Y143.2405
N0035 F[#102] G1 Z-2.0000
N0036 F[#101] G2 X244.9298 Y143.2405 I-0.0500 J0.0000
N0037 F[#101] G2 X245.0298 Y143.2405 I0.0500 J0.0000
N0038 G0 Z3.0000

;Path start Point
N0039 G0 X245.0298 Y200.2405
N0040 F[#102] G1 Z-2.0000
N0041 F[#101] G2 X244.9298 Y200.2405 I-0.0500 J0.0000
N0042 F[#101] G2 X245.0298 Y200.2405 I0.0500 J0.0000
N0043 G0 Z3.0000

;Path start Point
N0044 G0 X211.7274 Y20.1594
N0045 F[#102] G1 Z-2.0000
N0046 F[#101] G2 X211.6274 Y20.1594 I-0.0500 J0.0000
N0047 F[#101] G2 X211.7274 Y20.1594 I0.0500 J0.0000
N0048 G0 Z3.0000

;Path start Point
N0049 G0 X211.7274 Y77.1594
N0050 F[#102] G1 Z-2.0000
N0051 F[#101] G2 X211.6274 Y77.1594 I-0.0500 J0.0000
N0052 F[#101] G2 X211.7274 Y77.1594 I0.0500 J0.0000
N0053 G0 Z3.0000

;Path start Point
N0054 G0 X211.7274 Y142.9594
N0055 F[#102] G1 Z-2.0000
N0056 F[#101] G2 X211.6274 Y142.9594 I-0.0500 J0.0000
N0057 F[#101] G2 X211.7274 Y142.9594 I0.0500 J0.0000
N0058 G0 Z3.0000

;Path start Point
N0059 G0 X211.7274 Y199.9594
N0060 F[#102] G1 Z-2.0000
N0061 F[#101] G2 X211.6274 Y199.9594 I-0.0500 J0.0000
N0062 F[#101] G2 X211.7274 Y199.9594 I0.0500 J0.0000
N0063 G0 Z3.0000

;Path start Point
N0064 G0 X201.7274 Y20.1594
N0065 F[#102] G1 Z-2.0000
N0066 F[#101] G2 X201.6274 Y20.1594 I-0.0500 J0.0000
N0067 F[#101] G2 X201.7274 Y20.1594 I0.0500 J0.0000
N0068 G0 Z3.0000

;Path start Point
N0069 G0 X201.7274 Y77.1594
N0070 F[#102] G1 Z-2.0000
N0071 F[#101] G2 X201.6274 Y77.1594 I-0.0500 J0.0000
N0072 F[#101] G2 X201.7274 Y77.1594 I0.0500 J0.0000
N0073 G0 Z3.0000

;Path start Point
N0074 G0 X201.7274 Y142.9594
N0075 F[#102] G1 Z-2.0000
N0076 F[#101] G2 X201.6274 Y142.9594 I-0.0500 J0.0000
N0077 F[#101] G2 X201.7274 Y142.9594 I0.0500 J0.0000
N0078 G0 Z3.0000

;Path start Point
N0079 G0 X201.7274 Y199.9594
N0080 F[#102] G1 Z-2.0000
N0081 F[#101] G2 X201.6274 Y199.9594 I-0.0500 J0.0000
N0082 F[#101] G2 X201.7274 Y199.9594 I0.0500 J0.0000
N0083 G0 Z3.0000

;Path start Point
N0084 G0 X173.5529 Y20.1000
N0085 F[#102] G1 Z-2.0000
N0086 F[#101] G2 X173.4529 Y20.1000 I-0.0500 J0.0000
N0087 F[#101] G2 X173.5529 Y20.1000 I0.0500 J0.0000
N0088 G0 Z3.0000

;Path start Point
N0089 G0 X173.5529 Y77.1000
N0090 F[#102] G1 Z-2.0000
N0091 F[#101] G2 X173.4529 Y77.1000 I-0.0500 J0.0000
N0092 F[#101] G2 X173.5529 Y77.1000 I0.0500 J0.0000
N0093 G0 Z3.0000

;Path start Point
N0094 G0 X173.5529 Y142.9000
N0095 F[#102] G1 Z-2.0000
N0096 F[#101] G2 X173.4529 Y142.9000 I-0.0500 J0.0000
N0097 F[#101] G2 X173.5529 Y142.9000 I0.0500 J0.0000
N0098 G0 Z3.0000

;Path start Point
N0099 G0 X173.5529 Y199.9000
N0100 F[#102] G1 Z-2.0000
N0101 F[#101] G2 X173.4529 Y199.9000 I-0.0500 J0.0000
N0102 F[#101] G2 X173.5529 Y199.9000 I0.0500 J0.0000
N0103 G0 Z3.0000

;Path start Point
N0104 G0 X163.5529 Y20.1000
N0105 F[#102] G1 Z-2.0000
N0106 F[#101] G2 X163.4529 Y20.1000 I-0.0500 J0.0000
N0107 F[#101] G2 X163.5529 Y20.1000 I0.0500 J0.0000
N0108 G0 Z3.0000

;Path start Point
N0109 G0 X163.5529 Y77.1000
N0110 F[#102] G1 Z-2.0000
N0111 F[#101] G2 X163.4529 Y77.1000 I-0.0500 J0.0000
N0112 F[#101] G2 X163.5529 Y77.1000 I0.0500 J0.0000
N0113 G0 Z3.0000

;Path start Point
N0114 G0 X163.5529 Y142.9000
N0115 F[#102] G1 Z-2.0000
N0116 F[#101] G2 X163.4529 Y142.9000 I-0.0500 J0.0000
N0117 F[#101] G2 X163.5529 Y142.9000 I0.0500 J0.0000
N0118 G0 Z3.0000

;Path start Point
N0119 G0 X163.5529 Y199.9000
N0120 F[#102] G1 Z-2.0000
N0121 F[#101] G2 X163.4529 Y199.9000 I-0.0500 J0.0000
N0122 F[#101] G2 X163.5529 Y199.9000 I0.0500 J0.0000
N0123 G0 Z3.0000

;Path start Point
N0124 G0 X136.0384 Y20.4998
N0125 F[#102] G1 Z-2.0000
N0126 F[#101] G2 X135.9384 Y20.4998 I-0.0500 J0.0000
N0127 F[#101] G2 X136.0384 Y20.4998 I0.0500 J0.0000
N0128 G0 Z3.0000

;Path start Point
N0129 G0 X136.0384 Y77.4998
N0130 F[#102] G1 Z-2.0000
N0131 F[#101] G2 X135.9384 Y77.4998 I-0.0500 J0.0000
N0132 F[#101] G2 X136.0384 Y77.4998 I0.0500 J0.0000
N0133 G0 Z3.0000

;Path start Point
N0134 G0 X136.0384 Y143.2998
N0135 F[#102] G1 Z-2.0000
N0136 F[#101] G2 X135.9384 Y143.2998 I-0.0500 J0.0000
N0137 F[#101] G2 X136.0384 Y143.2998 I0.0500 J0.0000
N0138 G0 Z3.0000

;Path start Point
N0139 G0 X136.0384 Y200.2998
N0140 F[#102] G1 Z-2.0000
N0141 F[#101] G2 X135.9384 Y200.2998 I-0.0500 J0.0000
N0142 F[#101] G2 X136.0384 Y200.2998 I0.0500 J0.0000
N0143 G0 Z3.0000

;Path start Point
N0144 G0 X126.0384 Y20.4998
N0145 F[#102] G1 Z-2.0000
N0146 F[#101] G2 X125.9384 Y20.4998 I-0.0500 J0.0000
N0147 F[#101] G2 X126.0384 Y20.4998 I0.0500 J0.0000
N0148 G0 Z3.0000

;Path start Point
N0149 G0 X126.0384 Y77.4998
N0150 F[#102] G1 Z-2.0000
N0151 F[#101] G2 X125.9384 Y77.4998 I-0.0500 J0.0000
N0152 F[#101] G2 X126.0384 Y77.4998 I0.0500 J0.0000
N0153 G0 Z3.0000

;Path start Point
N0154 G0 X126.0384 Y143.2998
N0155 F[#102] G1 Z-2.0000
N0156 F[#101] G2 X125.9384 Y143.2998 I-0.0500 J0.0000
N0157 F[#101] G2 X126.0384 Y143.2998 I0.0500 J0.0000
N0158 G0 Z3.0000

;Path start Point
N0159 G0 X126.0384 Y200.2998
N0160 F[#102] G1 Z-2.0000
N0161 F[#101] G2 X125.9384 Y200.2998 I-0.0500 J0.0000
N0162 F[#101] G2 X126.0384 Y200.2998 I0.0500 J0.0000
N0163 G0 Z3.0000

;Path start Point
N0164 G0 X81.8425 Y20.7809
N0165 F[#102] G1 Z-2.0000
N0166 F[#101] G2 X81.7425 Y20.7809 I-0.0500 J0.0000
N0167 F[#101] G2 X81.8425 Y20.7809 I0.0500 J0.0000
N0168 G0 Z3.0000

;Path start Point
N0169 G0 X81.8425 Y200.5809
N0170 F[#102] G1 Z-2.0000
N0171 F[#101] G2 X81.7425 Y200.5809 I-0.0500 J0.0000
N0172 F[#101] G2 X81.8425 Y200.5809 I0.0500 J0.0000
N0173 G0 Z3.0000

;Path start Point
N0174 G0 X71.8425 Y20.7809
N0175 F[#102] G1 Z-2.0000
N0176 F[#101] G2 X71.7425 Y20.7809 I-0.0500 J0.0000
N0177 F[#101] G2 X71.8425 Y20.7809 I0.0500 J0.0000
N0178 G0 Z3.0000

;Path start Point
N0179 G0 X71.8425 Y200.5809
N0180 F[#102] G1 Z-2.0000
N0181 F[#101] G2 X71.7425 Y200.5809 I-0.0500 J0.0000
N0182 F[#101] G2 X71.8425 Y200.5809 I0.0500 J0.0000
N0183 G0 Z3.0000

;Path start Point
N0184 G0 X31.0500 Y20.8403
N0185 F[#102] G1 Z-2.0000
N0186 F[#101] G2 X30.9500 Y20.8403 I-0.0500 J0.0000
N0187 F[#101] G2 X31.0500 Y20.8403 I0.0500 J0.0000
N0188 G0 Z3.0000

;Path start Point
N0189 G0 X31.0500 Y200.6403
N0190 F[#102] G1 Z-2.0000
N0191 F[#101] G2 X30.9500 Y200.6403 I-0.0500 J0.0000
N0192 F[#101] G2 X31.0500 Y200.6403 I0.0500 J0.0000
N0193 G0 Z3.0000

;Path start Point
N0194 G0 X21.0500 Y20.8403
N0195 F[#102] G1 Z-2.0000
N0196 F[#101] G2 X20.9500 Y20.8403 I-0.0500 J0.0000
N0197 F[#101] G2 X21.0500 Y20.8403 I0.0500 J0.0000
N0198 G0 Z3.0000

;Path start Point
N0199 G0 X21.0500 Y200.6403
N0200 F[#102] G1 Z-2.0000
N0201 F[#101] G2 X20.9500 Y200.6403 I-0.0500 J0.0000
N0202 F[#101] G2 X21.0500 Y200.6403 I0.0500 J0.0000
N0203 G0 Z3.0000
N0204 M30
